X:36
T:The Apprentice
C:Peter Jenkins, 1980
L:1/8
M:6/8
R:Jig
S:Colin Hume's website,  colinhume.com  - chords can also be printed below the stave.
Q:3/8=112
K:G
P:A
|: D | "G"GDB "Am"AEc | "G"BAG "D7"FED | "G"GDB "Am"AEc | "D7"BAF "G"G2D |\
"G"GDB "Am"AEc | "G"BAG "D7"FED | "C"CDE "G"DEG | "D7"FGA "G"G2 :|
P:B
|: B | "C"cdc "G"BAG | "A7"EAG "D"FED | "C"cdc "G"BAG | "A7"EFG "D"A2D |\
"C"EGE "D"FAF | "Em"GBG "Am"AcA | "G"BAG "C"EGE | "D7"FGA "G"G2 :|

